X:1
T: Glen Grant
C:C. Grant
R:Strathspey
Q: 128
K:A
M:4/4
L:1/16
|:ED|C3E A3E F3E C3E|C3E A3c dcBA F3A|C3E A3E F3E C3E|F3D B3G A4 A2ED|
C3E A3E F3E C3E|C3E A3c dcBA F3A|C3E A3E F3E C3E|F3D B3G A4 A2cd|
e3A c3e dcBA F3f|e3A c3e fefg a3f|e3A c3e Ac3 F3A|GB3 E3G A4 A3f|
e3A c3e dcBA F3f|e3A c3e fefg a3f|e3a edcB A3c F3A|GB3 E3G A4 A2:|
